X: 198
T: Bahçada Yeşil Çınar
C: Celal Güzelses
O: Turkey
F: http://compmusic.upf.edu/node/140
N: segah--turku--curcuna--bahcada_yesil--diyarbakir
N: makam= segah
N: form= turku
N: usul= curcuna = 10/8
M: 10/8
L: 1/16
K: C _1/4B _1/4e ^f 
Q: 1/4=168
%%MIDI tuningsystem comma53
z4 z2f4f4f6  | f4 f6f4f2 g2e2  | e6f2 g2g4g2 a2f2  | \
w:  Bah ça da   |  ye şil  çı nar    |  *  Bo *  yun  bo  | 
f4 f2g2 e2{f}e4e=f efd2  | 
w:  yu ma  *  *  *  u *  *  *  *  yar    | 
z4 g6g4g4f2  | f4 f4 e2e2 =f2e2 f2d2  | \
w:  Ben  se ni   |  giz li  *  sev *  dim    | 
d6=f4f2 e2{f}e4d2  | d4 cdc2 d2c2 B2B4z2  | 
w:  Bil *  me *  *  dim   |  â lem  *  *  *  du *  yar    | 
B2d2 cdc2 d2c2 B2cB ^A2B2  | z4 z2B4c4d4c2  | \
w:  A *  man  *  *  *  gü *  lüm   |  na  na  na yı    | 
d4 c2d4c2 B2B6  | 
w:  Top  *  kâ kül *  lüm   | 
z4 z2g4gf gafg e4  | f2e2 e2f4f2 e2e2 f2ed  | \
w:  na na *  *  *  *  *  yı    |  *  *  Na *  na *  *  *  yı   | 
d4 d2e4=f4e4d2  | 
w:  ki bar  *  yâ rim    | 
d4 c2c2 B2B2 c2d2 e2f2  | z4 z2g4gf gafg e4  | \
w:  Na yı  na  *  na  |  na na *  *  *  *  *  yı    | 
f2e2 e2f4f2 e2e2 f2ed  | 
w:  *  *  Na *  na *  *  *  yı   | 
d4 d2e4=f4e4d2  | d4 c2c2 B2B8z2  | z4 z2f4f4f6  | \
w:  ki bar  *  yâ rim    |  na yı  na *  nay    |  Bah ça da   | 
f4 f6f4f2 g2e2  | 
w:  ye şil  çı nar    | 
e6f2 g2g4g2 a2f2  | f4 f2g2 e2{f}e4e=f efd2  | \
w:  *  Bo *  yun  bo  |  yu ma  *  *  *  u *  *  *  *  yar    | 
z4 g6g4g4f2  | 
w:  Ben  se ni   | 
f4 f4 e2e2 =f2e2 f2d2  | d6=f4f2 e2{f}e4d2  | \
w:  giz li  *  sev *  dim    |  Bil *  me *  *  dim   | 
d4 cdc2 d2c2 B2B4z2  | 
w:  â lem  *  *  *  du *  yar    | 
B2d2 cdc2 d2c2 B2cB ^A2B2  | z4 z2B4c4d4c2  | \
w:  A *  man  *  *  *  gü *  lüm   |  na  na  na yı    | 
d4 c2d4c2 B2B6  | 
w:  Top  *  kâ kül *  lüm   | 
z4 z2g4gf gafg e4  | f2e2 e2f4f2 e2e2 f2ed  | \
w:  na na *  *  *  *  *  yı    |  *  *  Na *  na *  *  *  yı   | 
d4 d2e4=f4e4d2  | 
w:  ki bar  *  yâ rim    | 
d4 c2c2 B2B2 c2d2 e2f2  | z4 z2g4gf gafg e4  | \
w:  Na yı  na  *  na  |  na na *  *  *  *  *  yı    | 
f2e2 e2f4f2 e2e2 f2ed  | 
w:  *  *  Na *  na *  *  *  yı   | 
d4 d2e4=f4e4d2  | d4 c2c2 B2B8z2  | |


